X:1
T:Title
%%score { ( 1 3 ) | ( 2 4 ) }
L:1/8
Q:1/4=100
M:4/4
K:Ab
V:1 treble nm="Grand Piano"
V:3 treble 
V:2 bass 
V:4 bass 
V:1
 [Ec][Ec][Ec][EB] [EA][EA][EA][EG] | FFFA E4 | [CA][CA][CA][CA] [Ec][Ec][CA][EA] | %3
w: P.~P.~Bilhorn * * * * * * *|||
 [=DB][DB] [DB]>[Dc] [EB]4 | [Ec][Ec][Ec][EB] [EA][EA][EA][EG] | %5
w: ||
[M:19/16] FFFAE/-E/-E/-E/-E/-E-<E[CE] |[M:4/4] z [FB] z2 z4 | [CEA]6 z2 | [G,DE]BBB B4 | %9
w: ||||
 [CE][Ec][Ec][Ec] [Ec]3 [Ec] | [=DB][DB][DB][DB] [Dc]2 [F=d]2 |[M:5/4] e2- e4- e z z2 | %12
w: |||
[M:4/4] [Ec][Ec][Ec][DB] [CA]2 [CA][EG] | FFFA E3 [CE] | z [FB] z2 z4 | [CA]6 z2 |] %16
w: ||||
V:2
 [A,,A,][A,,A,][A,,A,][B,,G,] [C,A,][C,A,][C,A,][C,A,] | [D,A,D][D,A,D][D,A,D][F,A,D] [A,C]4 | %2
 [A,,E,][A,,E,][A,,E,][A,,E,] [A,,A,][A,,A,][A,,E,][C,A,] | %3
 [B,,F,][B,,F,] [B,,F,]>[B,,A,] [E,G,]4 | [A,,A,][B,,A,][A,,A,][B,,G,] [C,A,][C,A,][C,A,][C,A,] | %5
[M:19/16] [D,A,D][D,A,D][D,A,D][F,A,D][A,C]/-[A,C]/-[A,C]/-[A,C]/-[A,C]/-[A,C]-<[A,C][A,,A,] | %6
[M:4/4] [D,A,] B,,3 E,2 E,2 | A,,6 z2 | B,,[E,G,D][E,G,D][E,G,D] [E,G,D]4 | %9
 [A,,A,][A,,A,][A,,A,][A,,A,] [A,,A,]3 [A,,A,] | [B,,F,][B,,F,][B,,F,][B,,A,] [B,,A,]2 [B,,A,]2 | %11
[M:5/4] .[G,E]2 z2 z2 z4 |[M:4/4] [A,,A,][A,,A,][A,,A,][A,,A,] [A,,E,]2 [A,,E,][C,A,] | %13
 [D,A,D][D,A,D][D,A,D][F,A,D] [A,C]3 [A,,A,] | [D,A,] B,,3 [E,C]2 [E,B,]2 | [A,,A,]6 z2 |] %16
V:3
 x8 | x8 | x8 | x8 | x8 |[M:19/16] x19/2 |[M:4/4] .[DF] D3 .[CEA]2 .[DEG]2 | x8 | x8 | x8 | x8 | %11
[M:5/4] z EGA G3 d3 |[M:4/4] x8 | x8 | .[DF] D3 .[EA]2 .[DG]2 | x8 |] %16
V:4
 x8 | x8 | x8 | x8 | x8 |[M:19/16] x19/2 |[M:4/4] x8 | x8 | x8 | x8 | x8 | %11
[M:5/4] E,-[E,-G,][E,-B,][E,-C] [E,D]3 [E,G,E]3 |[M:4/4] x8 | x8 | x8 | x8 |] %16

